icon/gr/yoga.svg

<svg xmlns="http://www.w3.org/2000/svg" width="24" height="24"><path fill="none" stroke="#000" stroke-linecap="round" stroke-linejoin="round" stroke-width="2" d="m12 11-1 3 1 3h-1.5L9 14l.5-4.5L12 11Zm1-9L9 6v8l1 3H6l-3 5m17.5 0-5-3.5L12 17l-1-3 1-3 3.5 2v5.5M14 8.5a1 1 0 1 1 0-2 1 1 0 0 1 0 2Zm-3 2L10 17v-3.5l1-3Z"/></svg>

<svg xmlns="http://www.w3.org/2000/svg" viewBox="0 0 24 24" height="1em" width="1em">
  <path fill="none" stroke="#000" stroke-linecap="round" stroke-linejoin="round" stroke-width="2" d="M12,11 L11,14 L12,17 L10.5,17 L9,14 L9.5,9.5 L12,11 Z M13,2 L9,6 L9,11 L9,14 L10,17 L6,17 L3,22 M20.5,22 L15.5,18.5 L12,17 L11,14 L12,11 L15.5,13 L15.5,18.5 M14,8.5 C13.4477153,8.5 13,8.05228475 13,7.5 C13,6.94771525 13.4477153,6.5 14,6.5 C14.5522847,6.5 15,6.94771525 15,7.5 C15,8.05228475 14.5522847,8.5 14,8.5 Z M11,10.5 L10,17 L10,13.5 L11,10.5 Z"/>
</svg>
